X: 21
T: Mountain Road, The
C: Michael Gorman
Z: brailsford
S: https://thesession.org/tunes/68#setting52284
R: reel
M: 4/4
L: 1/8
K: Dmaj
DE|F2AF BFAF|F2AF EFDE| F2AF BFAF|G2FG EDB,D|
F2dF cFBF|FBAF EFDE|FAA2 BAFB|ABde fddc||
d2dB ADFA|dcde fgfe|dcdB ADFA| G2FG EDB,D|
dcdB ADFA|dcde fgfe|d2cd BdAF|G2FG EDB,D||

%-------------------- TUNE SEPARATOR --------------------%

